imagenes/Logo.svg

<svg width="64" height="65" viewBox="0 0 64 65" fill="none" xmlns="http://www.w3.org/2000/svg">
<path d="M32 62.6001C15.4315 62.6001 2 49.0343 2 32.3C2 15.5658 15.4315 2 32 2C48.5686 2 62 15.5658 62 32.3C62 49.0343 48.5686 62.6001 32 62.6001Z" stroke="#FF8500" stroke-width="3" stroke-miterlimit="10"/>
<path d="M31.5639 21.1787C31.7631 21.0526 32.0331 21.0528 32.2321 21.1793L42.1862 27.5082C42.3552 27.6156 42.5784 27.6337 42.7673 27.5552L43.2009 27.3751C43.4005 27.2921 43.5265 27.1156 43.5234 26.9231L43.2683 10.6764C43.2641 10.4073 43.0123 10.191 42.7032 10.191H42.3183C42.0044 10.191 41.7498 10.4125 41.7496 10.6858L41.7366 25.056C41.7342 25.2309 41.5056 25.3301 41.3438 25.2266L32.2318 19.3977C32.0299 19.2686 31.755 19.2685 31.5531 19.3976L31.5639 21.1787Z" fill="#5C7AEA"/>
<path d="M31.5639 21.1787C31.7631 21.0526 32.0331 21.0528 32.2321 21.1793L42.1862 27.5082C42.3552 27.6156 42.5784 27.6337 42.7673 27.5552L43.2009 27.3751C43.4005 27.2921 43.5265 27.1156 43.5234 26.9231L43.2683 10.6764C43.2641 10.4073 43.0123 10.191 42.7032 10.191H42.3183C42.0044 10.191 41.7498 10.4125 41.7496 10.6858L41.7366 25.056C41.7342 25.2309 41.5056 25.3301 41.3438 25.2266L32.2318 19.3977C32.0299 19.2686 31.755 19.2685 31.5531 19.3976L31.5639 21.1787Z" stroke="#457495" stroke-miterlimit="10"/>
<path d="M32.2068 21.1787C32.0076 21.0526 31.7376 21.0528 31.5387 21.1793L21.5846 27.5082C21.4155 27.6156 21.1924 27.6337 21.0035 27.5552L20.5698 27.3751C20.3702 27.2921 20.2442 27.1156 20.2472 26.9231L20.5024 10.6764C20.5066 10.4073 20.7584 10.191 21.0675 10.191H21.4524C21.7664 10.191 22.0209 10.4125 22.0211 10.6858L22.034 25.056C22.0364 25.2309 22.265 25.3301 22.4269 25.2266L31.5389 19.3977C31.7408 19.2686 32.0157 19.2685 32.2176 19.3976L32.2068 21.1787Z" fill="#5C7AEA"/>
<path d="M32.2068 21.1787C32.0076 21.0526 31.7376 21.0528 31.5387 21.1793L21.5846 27.5082C21.4155 27.6156 21.1924 27.6337 21.0035 27.5552L20.5698 27.3751C20.3702 27.2921 20.2442 27.1156 20.2472 26.9231L20.5024 10.6764C20.5066 10.4073 20.7584 10.191 21.0675 10.191H21.4524C21.7664 10.191 22.0209 10.4125 22.0211 10.6858L22.034 25.056C22.0364 25.2309 22.265 25.3301 22.4269 25.2266L31.5389 19.3977C31.7408 19.2686 32.0157 19.2685 32.2176 19.3976L32.2068 21.1787Z" stroke="#457495" stroke-miterlimit="10"/>
<path d="M18.451 54.9271L31.3571 45.2176C31.51 45.1025 31.5824 44.9078 31.5422 44.7195L31.4617 44.3427C31.4239 44.1655 31.2932 44.0234 31.1211 43.9721L20.8995 40.9212C20.6958 40.8604 20.5542 40.6738 20.5491 40.4594L20.2929 29.7308C20.2886 29.5486 20.1857 29.3836 20.0248 29.3009L19.6557 29.1112C19.4858 29.0238 19.2811 29.0443 19.1314 29.1637L6.50705 39.2346C6.29791 39.4015 6.26028 39.707 6.42258 39.9205L6.62465 40.1863C6.78944 40.4031 7.09698 40.444 7.31174 40.2777L18.6033 31.5347C18.7419 31.4299 18.9398 31.5273 18.9435 31.7021L19.1502 41.5446C19.1547 41.7627 19.2991 41.9526 19.5065 42.0134L28.8395 44.7512C29.0083 44.8006 29.0511 45.022 28.9133 45.1321L17.6616 53.8917C17.4474 54.0585 17.4073 54.3691 17.572 54.5857L17.7577 54.83C17.9237 55.0483 18.2324 55.0915 18.451 54.9271Z" fill="#8DA2F0"/>
<path d="M18.451 54.9271L31.3571 45.2176C31.51 45.1025 31.5824 44.9078 31.5422 44.7195L31.4617 44.3427C31.4239 44.1655 31.2932 44.0234 31.1211 43.9721L20.8995 40.9212C20.6958 40.8604 20.5542 40.6738 20.5491 40.4594L20.293 29.7308C20.2886 29.5486 20.1857 29.3836 20.0248 29.3009L19.6557 29.1112C19.4858 29.0238 19.2811 29.0443 19.1314 29.1637L6.50705 39.2346C6.29791 39.4015 6.26028 39.707 6.42258 39.9205L6.62465 40.1863C6.78944 40.4031 7.09698 40.444 7.31174 40.2777L18.6033 31.5347C18.7419 31.4299 18.9398 31.5273 18.9435 31.7021L19.1502 41.5446C19.1548 41.7627 19.2991 41.9526 19.5065 42.0134L28.8395 44.7512C29.0083 44.8006 29.0511 45.022 28.9133 45.1321L17.6616 53.8917C17.4474 54.0585 17.4072 54.3691 17.572 54.5857L17.7577 54.83C17.9237 55.0483 18.2324 55.0915 18.451 54.9271Z" stroke="#9CC9D0" stroke-miterlimit="10"/>
<path d="M57.2319 39.2338L44.6101 29.1504C44.4605 29.0309 44.2556 29.0106 44.0858 29.0985L43.7462 29.2744C43.5865 29.3571 43.4843 29.5213 43.4797 29.7025L43.203 40.4641C43.1975 40.6785 43.0556 40.8649 42.8518 40.9253L32.6565 43.9476C32.4834 43.9989 32.3521 44.142 32.3146 44.3203L32.2285 44.7295C32.1888 44.9179 32.2614 45.1123 32.4142 45.2274L45.3089 54.9426C45.5225 55.1036 45.8245 55.0614 45.9868 54.8478L46.1888 54.582C46.3536 54.3651 46.3132 54.0545 46.0987 53.888L34.8185 45.13C34.6823 45.0219 34.7244 44.8036 34.8907 44.7549L44.2513 42.0098C44.4587 41.949 44.603 41.7591 44.6076 41.541L44.8144 31.7274C44.8182 31.5499 45.0189 31.4508 45.1598 31.5569L56.4454 40.2717C56.6604 40.4376 56.9678 40.3965 57.1325 40.1797L57.3181 39.9354C57.484 39.717 57.4456 39.4046 57.2319 39.2338Z" fill="#243D58"/>
<path d="M57.2319 39.2338L44.6101 29.1504C44.4605 29.0309 44.2556 29.0106 44.0858 29.0985L43.7462 29.2744C43.5865 29.3571 43.4843 29.5213 43.4797 29.7025L43.203 40.4641C43.1975 40.6785 43.0556 40.8649 42.8518 40.9253L32.6565 43.9476C32.4834 43.9989 32.3521 44.142 32.3146 44.3203L32.2285 44.7295C32.1888 44.9179 32.2614 45.1123 32.4142 45.2274L45.3089 54.9426C45.5225 55.1036 45.8245 55.0614 45.9868 54.8478L46.1888 54.582C46.3536 54.3651 46.3132 54.0545 46.0987 53.888L34.8185 45.13C34.6823 45.0219 34.7244 44.8036 34.8907 44.7549L44.2513 42.0098C44.4587 41.949 44.603 41.7591 44.6076 41.541L44.8144 31.7274C44.8182 31.5499 45.0189 31.4508 45.1598 31.5569L56.4454 40.2717C56.6604 40.4376 56.9678 40.3965 57.1325 40.1797L57.3181 39.9354C57.484 39.717 57.4456 39.4046 57.2319 39.2338Z" stroke="#243D58" stroke-miterlimit="10"/>
</svg>

<svg width="64" height="65" fill="none" xmlns="http://www.w3.org/2000/svg"><path d="M32 62.6c-16.569 0-30-13.566-30-30.3S15.431 2 32 2c16.569 0 30 13.566 30 30.3S48.569 62.6 32 62.6Z" stroke="#FF8500" stroke-width="3" stroke-miterlimit="10"/><path d="M31.564 21.179c.2-.126.47-.126.668 0l9.954 6.33a.641.641 0 0 0 .581.046l.434-.18c.2-.083.325-.26.322-.452l-.255-16.247c-.004-.269-.256-.485-.565-.485h-.385c-.314 0-.568.221-.568.495l-.013 14.37c-.003.175-.231.274-.393.17l-9.112-5.828a.643.643 0 0 0-.679 0l.01 1.78Z" fill="#5C7AEA"/><path d="M31.564 21.179c.2-.126.47-.126.668 0l9.954 6.33a.641.641 0 0 0 .581.046l.434-.18c.2-.083.325-.26.322-.452l-.255-16.247c-.004-.269-.256-.485-.565-.485h-.385c-.314 0-.568.221-.568.495l-.013 14.37c-.003.175-.231.274-.393.17l-9.112-5.828a.643.643 0 0 0-.679 0l.01 1.78Z" stroke="#457495" stroke-miterlimit="10"/><path d="M32.207 21.179a.636.636 0 0 0-.668 0l-9.954 6.33a.641.641 0 0 1-.582.046l-.433-.18c-.2-.083-.326-.26-.323-.452l.255-16.247c.005-.269.256-.485.566-.485h.384c.314 0 .569.221.57.495l.012 14.37c.002.175.231.274.393.17l9.112-5.828a.643.643 0 0 1 .679 0l-.011 1.78Z" fill="#5C7AEA"/><path d="M32.207 21.179a.636.636 0 0 0-.668 0l-9.954 6.33a.641.641 0 0 1-.582.046l-.433-.18c-.2-.083-.326-.26-.323-.452l.255-16.247c.005-.269.256-.485.566-.485h.384c.314 0 .569.221.57.495l.012 14.37c.002.175.231.274.393.17l9.112-5.828a.643.643 0 0 1 .679 0l-.011 1.78Z" stroke="#457495" stroke-miterlimit="10"/><path d="m18.451 54.927 12.906-9.71a.495.495 0 0 0 .185-.498l-.08-.376a.493.493 0 0 0-.34-.37L20.898 40.92a.493.493 0 0 1-.35-.462l-.256-10.728a.496.496 0 0 0-.268-.43l-.37-.19a.484.484 0 0 0-.524.053L6.507 39.234a.495.495 0 0 0-.084.686l.202.266a.487.487 0 0 0 .687.092l11.291-8.743a.213.213 0 0 1 .34.167l.207 9.843a.498.498 0 0 0 .357.468l9.332 2.738a.22.22 0 0 1 .074.381l-11.251 8.76a.499.499 0 0 0-.09.694l.186.244a.495.495 0 0 0 .693.097Z" fill="#8DA2F0"/><path d="m18.451 54.927 12.906-9.71a.495.495 0 0 0 .185-.498l-.08-.376a.493.493 0 0 0-.34-.37L20.898 40.92a.493.493 0 0 1-.35-.462l-.256-10.728a.496.496 0 0 0-.268-.43l-.37-.19a.484.484 0 0 0-.524.053L6.507 39.234a.495.495 0 0 0-.084.686l.202.266a.487.487 0 0 0 .687.092l11.291-8.743a.213.213 0 0 1 .34.167l.207 9.843a.498.498 0 0 0 .357.468l9.332 2.738a.22.22 0 0 1 .074.381l-11.251 8.76a.499.499 0 0 0-.09.694l.186.244a.495.495 0 0 0 .693.097Z" stroke="#9CC9D0" stroke-miterlimit="10"/><path d="M57.232 39.234 44.61 29.15a.483.483 0 0 0-.524-.051l-.34.175a.496.496 0 0 0-.266.428l-.277 10.762a.493.493 0 0 1-.351.461l-10.195 3.023a.494.494 0 0 0-.342.372l-.087.41a.496.496 0 0 0 .186.497l12.895 9.716a.484.484 0 0 0 .678-.095l.202-.266a.498.498 0 0 0-.09-.694l-11.28-8.758a.216.216 0 0 1 .072-.375l9.36-2.745a.498.498 0 0 0 .357-.469l.206-9.814a.216.216 0 0 1 .346-.17l11.285 8.715a.487.487 0 0 0 .688-.092l.185-.245a.507.507 0 0 0-.086-.701Z" fill="#243D58"/><path d="M57.232 39.234 44.61 29.15a.483.483 0 0 0-.524-.051l-.34.175a.496.496 0 0 0-.266.428l-.277 10.762a.493.493 0 0 1-.351.461l-10.195 3.023a.494.494 0 0 0-.342.372l-.087.41a.496.496 0 0 0 .186.497l12.895 9.716a.484.484 0 0 0 .678-.095l.202-.266a.498.498 0 0 0-.09-.694l-11.28-8.758a.216.216 0 0 1 .072-.375l9.36-2.745a.498.498 0 0 0 .357-.469l.206-9.814a.216.216 0 0 1 .346-.17l11.285 8.715a.487.487 0 0 0 .688-.092l.185-.245a.507.507 0 0 0-.086-.701Z" stroke="#243D58" stroke-miterlimit="10"/></svg>
